X: 11186
T: Dunkeld House
R: jig
M: 6/8
K: Eminor
EGE G2E|B2E G2E|F2D DFD|AFD DFD|
EGE G2E|B2E G2E|dcB AGF|1 BGE E2B,:|2 BGE E2f||
gbg ege|gbg ege|faf dfd|faf dfd|
gbg ege|gbg ege|ege faf|gee e2f|
gbg ege|gbg ege|faf dfd|faf dfd|
ege faf|gbg ege|dcB AFd|BGE E2||

